packages/ffe-icons/icons/open/400/sm/padding.svg

<svg xmlns="http://www.w3.org/2000/svg" height="20" viewBox="0 -960 960 960" width="20"><path d="M323.79-600q15.21 0 25.71-10.29t10.5-25.5q0-15.21-10.29-25.71t-25.5-10.5q-15.21 0-25.71 10.29t-10.5 25.5q0 15.21 10.29 25.71t25.5 10.5Zm156 0q15.21 0 25.71-10.29t10.5-25.5q0-15.21-10.29-25.71t-25.5-10.5q-15.21 0-25.71 10.29t-10.5 25.5q0 15.21 10.29 25.71t25.5 10.5Zm156 0q15.21 0 25.71-10.29t10.5-25.5q0-15.21-10.29-25.71t-25.5-10.5q-15.21 0-25.71 10.29t-10.5 25.5q0 15.21 10.29 25.71t25.5 10.5ZM216-144q-29.7 0-50.85-21.15Q144-186.3 144-216v-528q0-29.7 21.15-50.85Q186.3-816 216-816h528q29.7 0 50.85 21.15Q816-773.7 816-744v528q0 29.7-21.15 50.85Q773.7-144 744-144H216Zm0-72h528v-528H216v528Zm0-528v528-528Z"/></svg>

<svg xmlns="http://www.w3.org/2000/svg" height="20" viewBox="0 -960 960 960" width="20"><path d="M323.789-600Q339-600 349.5-610.289q10.5-10.29 10.5-25.5Q360-651 349.711-661.5q-10.29-10.5-25.5-10.5Q309-672 298.5-661.711q-10.5 10.29-10.5 25.5Q288-621 298.289-610.5q10.29 10.5 25.5 10.5Zm156 0Q495-600 505.5-610.289q10.5-10.29 10.5-25.5Q516-651 505.711-661.5q-10.29-10.5-25.5-10.5Q465-672 454.5-661.711q-10.5 10.29-10.5 25.5Q444-621 454.289-610.5q10.29 10.5 25.5 10.5Zm156 0Q651-600 661.5-610.289q10.5-10.29 10.5-25.5Q672-651 661.711-661.5q-10.29-10.5-25.5-10.5Q621-672 610.5-661.711q-10.5 10.29-10.5 25.5Q600-621 610.289-610.5q10.29 10.5 25.5 10.5ZM216-144q-29.7 0-50.85-21.15Q144-186.3 144-216v-528q0-29.7 21.15-50.85Q186.3-816 216-816h528q29.7 0 50.85 21.15Q816-773.7 816-744v528q0 29.7-21.15 50.85Q773.7-144 744-144H216Zm0-72h528v-528H216v528Zm0-528v528-528Z"/></svg>
